file/one-news.svg

<svg clip-rule="evenodd" fill-rule="evenodd" stroke-linejoin="round" stroke-miterlimit="1.41421" viewBox="0 0 560 400" xmlns="http://www.w3.org/2000/svg"><g fill-rule="nonzero" transform="matrix(1.16608 0 0 1.16608 109.736 87.4681)"><g fill="#fff"><path d="m89.964 39.667c12.628-5.306 28.638-2.415 37.775 8.055 3.44 3.725 5.392 8.461 6.973 13.204-.335-7.564-.171-15.134-.214-22.705 5.634-.043 11.26.064 16.886-.057.1 2.771.057 5.548-.035 8.326 2.991-3.547 6.445-7.001 10.996-8.411 7.891-2.486 17.791-.492 22.683 6.602 3.397 4.586 3.825 10.44 4.16 15.931 1.46-7.777 6.181-14.906 12.897-19.122 7.728-4.943 17.755-5.633 26.33-2.621 6.595 2.315 11.922 7.585 14.785 13.902 2.977 6.531 3.946 13.917 3.155 21.024-13.802.007-27.597-.057-41.399.036 1.096 4.017 3.34 7.998 7.221 9.885 7.193 3.497 16.252 1.268 21.658-4.451 3.404 2.735 6.574 5.747 9.885 8.596-10.22 12.834-30.588 14.543-43.6 5.092-5.634-4.102-9.693-10.362-10.904-17.249-.591 7.264-.1 14.593-.221 21.886-5.655.007-11.309.021-16.964-.007.071-11.296.028-22.584.028-33.88-.021-3.938-1.474-8.425-5.277-10.234-4.487-2.087-10.811-1.161-13.496 3.333-2.237 3.568-1.852 7.913-1.852 11.93.036 9.614-.071 19.229.05 28.843-5.662.036-11.324.022-16.993.008.05-7.543-.1-15.085.206-22.627-1.958 6.203-5.099 12.2-10.255 16.338-8.048 6.865-19.5 9.137-29.706 6.659-8.347-1.916-15.882-7.371-20.034-14.899-4.693-8.347-5.064-18.923-1.139-27.633 3.169-7.115 9.223-12.806 16.401-15.754m119.129 14.472c-2.407 2.457-3.561 5.797-4.358 9.073 8.503-.007 17.007 0 25.511-.007-.691-3.276-1.717-6.673-4.145-9.109-4.38-4.672-12.621-4.565-17.008.043m-117.398 2.307c-4.651 5.206-5.291 13.325-2.208 19.472-2.279 4.002-4.736 7.905-6.858 11.993 4.095-1.859 8.041-4.031 12.064-6.039 6.681 4.408 16.908 2.827 21.174-4.195 4.295-6.688 3.44-16.416-2.45-21.907-5.776-5.705-16.345-5.463-21.722.676z"/><path d="m55.508 139.424h4.68c3.233 6.581 6.217 13.282 9.6 19.778 1.659-6.61 3.568-13.162 5.284-19.764 1.681-.014 3.369-.014 5.05-.014-2.614 9.401-5.099 18.83-7.621 28.253-1.481.114-2.977.085-4.451-.121-2.614-5.933-5.662-11.666-8.332-17.577-.378-.883-.855-1.724-1.496-2.429-1.588 6.73-3.568 13.368-5.249 20.084-1.695.107-3.397.157-5.092.171 2.521-9.465 5.078-18.923 7.627-28.381z"/><path d="m86.254 139.431c6.944-.05 13.888.071 20.832-.064-.378 1.524-.784 3.048-1.197 4.572-5.242-.007-10.483.086-15.718-.064-.755 2.436-1.403 4.9-2.08 7.357 4.701-.057 9.394-.021 14.095-.028-.435 1.488-.862 2.977-1.275 4.479-4.672.086-9.351.022-14.03.029-.641 2.528-1.339 5.035-2.044 7.542 5.377-.014 10.761-.014 16.145-.007-.441 1.46-.869 2.927-1.282 4.401-7.022.2-14.051.164-21.074.007 2.593-9.393 5.057-18.823 7.628-28.224z"/><path d="m108.994 139.46c1.774-.036 3.547-.036 5.32-.015.25 6.845.855 13.675 1.019 20.526 4.544-6.595 8.268-13.76 12.485-20.59 1.438-.014 2.877-.021 4.323-.021.42 6.887.933 13.76 1.282 20.646 4.401-6.63 8.197-13.695 12.299-20.532 1.959-.057 3.917-.064 5.883-.057-5.933 9.479-11.687 19.072-17.627 28.552-1.538-.014-3.077-.022-4.608-.029-.434-6.63-.926-13.254-1.424-19.877-4.11 6.581-8.076 13.254-12.122 19.877-1.538 0-3.069 0-4.593-.007-.713-9.493-1.432-18.987-2.237-28.473z"/><path d="m155.593 141.083c5.441-3.582 13.098-2.393 17.727 2.023-1.14 1.254-2.336 2.45-3.575 3.604-2.607-2.685-6.738-4.124-10.313-2.607-1.916.734-3.212 3.597-1.282 5.035 3.34 2.5 8.197 2.792 10.676 6.467 2.272 3.703.285 8.838-3.419 10.79-6.082 3.418-14.272 1.738-18.908-3.376 1.253-1.161 2.549-2.286 3.888-3.354 2.778 3.226 7.5 5.106 11.602 3.425 1.965-.698 3.34-3.468 1.659-5.12-3.198-2.742-8.083-2.92-10.683-6.481-2.357-3.39-.698-8.297 2.628-10.406z"/></g><path d="m48.963 10.752c73.171 0 146.342-.015 219.513.007-.05 38.124-.057 76.24 0 114.364-22.512 0-45.032.007-67.544-.007-47.198-.014-94.402.078-141.599-.05-3.333-12.463-6.972-24.848-10.284-37.319-.192-25.66-.021-51.335-.086-76.995m41.001 28.915c-7.178 2.948-13.232 8.639-16.401 15.754-3.925 8.71-3.554 19.286 1.139 27.633 4.152 7.528 11.687 12.983 20.034 14.899 10.206 2.478 21.658.206 29.706-6.659 5.156-4.138 8.297-10.135 10.255-16.338-.306 7.542-.156 15.084-.206 22.627 5.669.014 11.331.028 16.993-.008-.121-9.614-.014-19.229-.05-28.843 0-4.017-.385-8.362 1.852-11.93 2.685-4.494 9.009-5.42 13.496-3.333 3.803 1.809 5.256 6.296 5.277 10.234 0 11.296.043 22.584-.028 33.88 5.655.028 11.309.014 16.964.007.121-7.293-.37-14.622.221-21.886 1.211 6.887 5.27 13.147 10.904 17.249 13.012 9.451 33.38 7.742 43.6-5.092-3.311-2.849-6.481-5.861-9.885-8.596-5.406 5.719-14.465 7.948-21.658 4.451-3.881-1.887-6.125-5.868-7.221-9.885 13.802-.093 27.597-.029 41.399-.036.791-7.107-.178-14.493-3.155-21.024-2.863-6.317-8.19-11.587-14.785-13.902-8.575-3.012-18.602-2.322-26.33 2.621-6.716 4.216-11.437 11.345-12.897 19.122-.335-5.491-.763-11.345-4.16-15.931-4.892-7.094-14.792-9.088-22.683-6.602-4.551 1.41-8.005 4.864-10.996 8.411.092-2.778.135-5.555.035-8.326-5.626.121-11.252.014-16.886.057.043 7.571-.121 15.141.214 22.705-1.581-4.743-3.533-9.479-6.973-13.204-9.137-10.47-25.147-13.361-37.775-8.055z" fill="#002896"/><path d="m209.093 54.139c4.387-4.608 12.628-4.715 17.008-.043 2.428 2.436 3.454 5.833 4.145 9.109-8.504.007-17.008 0-25.511.007.797-3.276 1.951-6.616 4.358-9.073z" fill="#002896"/><path d="m91.695 56.446c5.377-6.139 15.946-6.381 21.722-.676 5.89 5.491 6.745 15.219 2.45 21.907-4.266 7.022-14.493 8.603-21.174 4.195-4.023 2.008-7.969 4.18-12.064 6.039 2.122-4.088 4.579-7.991 6.858-11.993-3.083-6.147-2.443-14.266 2.208-19.472z" fill="#002896"/><path d="m23.552 182.241c8.568-31.479 16.879-63.029 25.497-94.494 3.312 12.471 6.951 24.856 10.284 37.319 47.197.128 94.401.036 141.599.05-5.207 19.03-10.242 38.11-15.419 57.147-53.985-.036-107.969.014-161.961-.022m31.956-42.817c-2.549 9.458-5.106 18.916-7.627 28.381 1.695-.014 3.397-.064 5.092-.171 1.681-6.716 3.661-13.354 5.249-20.084.641.705 1.118 1.546 1.496 2.429 2.67 5.911 5.718 11.644 8.332 17.577 1.474.206 2.97.235 4.451.121 2.522-9.423 5.007-18.852 7.621-28.253-1.681 0-3.369 0-5.05.014-1.716 6.602-3.625 13.154-5.284 19.764-3.383-6.496-6.367-13.197-9.6-19.778zm30.746.007c-2.571 9.401-5.035 18.831-7.628 28.224 7.023.157 14.052.193 21.074-.007.413-1.474.841-2.941 1.282-4.401-5.384-.007-10.768-.007-16.145.007.705-2.507 1.403-5.014 2.044-7.542 4.679-.007 9.358.057 14.03-.029.413-1.502.84-2.991 1.275-4.479-4.701.007-9.394-.029-14.095.028.677-2.457 1.325-4.921 2.08-7.357 5.235.15 10.476.057 15.718.064.413-1.524.819-3.048 1.197-4.572-6.944.135-13.888.014-20.832.064m22.74.029c.805 9.486 1.524 18.98 2.237 28.473 1.524.007 3.055.007 4.593.007 4.046-6.623 8.012-13.296 12.122-19.877.498 6.623.99 13.247 1.424 19.877 1.531.007 3.07.015 4.608.029 5.94-9.48 11.694-19.073 17.627-28.552-1.966-.007-3.924 0-5.883.057-4.102 6.837-7.898 13.902-12.299 20.532-.349-6.886-.862-13.759-1.282-20.646-1.446 0-2.885.007-4.323.021-4.217 6.83-7.941 13.995-12.485 20.59-.164-6.851-.769-13.681-1.019-20.526-1.773-.021-3.546-.021-5.32.015m46.599 1.623c-3.326 2.109-4.985 7.016-2.628 10.406 2.6 3.561 7.485 3.739 10.683 6.481 1.681 1.652.306 4.422-1.659 5.12-4.102 1.681-8.824-.199-11.602-3.425-1.339 1.068-2.635 2.193-3.888 3.354 4.636 5.114 12.826 6.794 18.908 3.376 3.704-1.952 5.691-7.087 3.419-10.79-2.479-3.675-7.336-3.967-10.676-6.467-1.93-1.438-.634-4.301 1.282-5.035 3.575-1.517 7.706-.078 10.313 2.607 1.239-1.154 2.435-2.35 3.575-3.604-4.629-4.416-12.286-5.605-17.727-2.023z" fill="#eb1e23"/></g></svg>

<?xml version="1.0" encoding="UTF-8" standalone="no"?>
<!DOCTYPE svg PUBLIC "-//W3C//DTD SVG 1.1//EN" "http://www.w3.org/Graphics/SVG/1.1/DTD/svg11.dtd">
<svg width="100%" height="100%" viewBox="0 0 560 400" version="1.1" xmlns="http://www.w3.org/2000/svg" xmlns:xlink="http://www.w3.org/1999/xlink" xml:space="preserve" xmlns:serif="http://www.serif.com/" style="fill-rule:evenodd;clip-rule:evenodd;stroke-linejoin:round;stroke-miterlimit:1.41421;">
    <g transform="matrix(1.16608,0,0,1.16608,109.736,87.4681)">
        <g id="_-ffffffff" serif:id="#ffffffff">
            <path d="M89.964,39.667C102.592,34.361 118.602,37.252 127.739,47.722C131.179,51.447 133.131,56.183 134.712,60.926C134.377,53.362 134.541,45.792 134.498,38.221C140.132,38.178 145.758,38.285 151.384,38.164C151.484,40.935 151.441,43.712 151.349,46.49C154.34,42.943 157.794,39.489 162.345,38.079C170.236,35.593 180.136,37.587 185.028,44.681C188.425,49.267 188.853,55.121 189.188,60.612C190.648,52.835 195.369,45.706 202.085,41.49C209.813,36.547 219.84,35.857 228.415,38.869C235.01,41.184 240.337,46.454 243.2,52.771C246.177,59.302 247.146,66.688 246.355,73.795C232.553,73.802 218.758,73.738 204.956,73.831C206.052,77.848 208.296,81.829 212.177,83.716C219.37,87.213 228.429,84.984 233.835,79.265C237.239,82 240.409,85.012 243.72,87.861C233.5,100.695 213.132,102.404 200.12,92.953C194.486,88.851 190.427,82.591 189.216,75.704C188.625,82.968 189.116,90.297 188.995,97.59C183.34,97.597 177.686,97.611 172.031,97.583C172.102,86.287 172.059,74.999 172.059,63.703C172.038,59.765 170.585,55.278 166.782,53.469C162.295,51.382 155.971,52.308 153.286,56.802C151.049,60.37 151.434,64.715 151.434,68.732C151.47,78.346 151.363,87.961 151.484,97.575C145.822,97.611 140.16,97.597 134.491,97.583C134.541,90.04 134.391,82.498 134.697,74.956C132.739,81.159 129.598,87.156 124.442,91.294C116.394,98.159 104.942,100.431 94.736,97.953C86.389,96.037 78.854,90.582 74.702,83.054C70.009,74.707 69.638,64.131 73.563,55.421C76.732,48.306 82.786,42.615 89.964,39.667M209.093,54.139C206.686,56.596 205.532,59.936 204.735,63.212C213.238,63.205 221.742,63.212 230.246,63.205C229.555,59.929 228.529,56.532 226.101,54.096C221.721,49.424 213.48,49.531 209.093,54.139M91.695,56.446C87.044,61.652 86.404,69.771 89.487,75.918C87.208,79.92 84.751,83.823 82.629,87.911C86.724,86.052 90.67,83.88 94.693,81.872C101.374,86.28 111.601,84.699 115.867,77.677C120.162,70.989 119.307,61.261 113.417,55.77C107.641,50.065 97.072,50.307 91.695,56.446Z" style="fill:white;fill-rule:nonzero;"/>
            <path d="M55.508,139.424L60.188,139.424C63.421,146.005 66.405,152.706 69.788,159.202C71.447,152.592 73.356,146.04 75.072,139.438C76.753,139.424 78.441,139.424 80.122,139.424C77.508,148.825 75.023,158.254 72.501,167.677C71.02,167.791 69.524,167.762 68.05,167.556C65.436,161.623 62.388,155.89 59.718,149.979C59.34,149.096 58.863,148.255 58.222,147.55C56.634,154.28 54.654,160.918 52.973,167.634C51.278,167.741 49.576,167.791 47.881,167.805C50.402,158.34 52.959,148.882 55.508,139.424Z" style="fill:white;fill-rule:nonzero;"/>
            <path d="M86.254,139.431C93.198,139.381 100.142,139.502 107.086,139.367C106.708,140.891 106.302,142.415 105.889,143.939C100.647,143.932 95.406,144.025 90.171,143.875C89.416,146.311 88.768,148.775 88.091,151.232C92.792,151.175 97.485,151.211 102.186,151.204C101.751,152.692 101.324,154.181 100.911,155.683C96.239,155.769 91.56,155.705 86.881,155.712C86.24,158.24 85.542,160.747 84.837,163.254C90.214,163.24 95.598,163.24 100.982,163.247C100.541,164.707 100.113,166.174 99.7,167.648C92.678,167.848 85.649,167.812 78.626,167.655C81.219,158.262 83.683,148.832 86.254,139.431Z" style="fill:white;fill-rule:nonzero;"/>
            <path d="M108.994,139.46C110.768,139.424 112.541,139.424 114.314,139.445C114.564,146.29 115.169,153.12 115.333,159.971C119.877,153.376 123.601,146.211 127.818,139.381C129.256,139.367 130.695,139.36 132.141,139.36C132.561,146.247 133.074,153.12 133.423,160.006C137.824,153.376 141.62,146.311 145.722,139.474C147.681,139.417 149.639,139.41 151.605,139.417C145.672,148.896 139.918,158.489 133.978,167.969C132.44,167.955 130.901,167.947 129.37,167.94C128.936,161.31 128.444,154.686 127.946,148.063C123.836,154.644 119.87,161.317 115.824,167.94C114.286,167.94 112.755,167.94 111.231,167.933C110.518,158.44 109.799,148.946 108.994,139.46Z" style="fill:white;fill-rule:nonzero;"/>
            <path d="M155.593,141.083C161.034,137.501 168.691,138.69 173.32,143.106C172.18,144.36 170.984,145.556 169.745,146.71C167.138,144.025 163.007,142.586 159.432,144.103C157.516,144.837 156.22,147.7 158.15,149.138C161.49,151.638 166.347,151.93 168.826,155.605C171.098,159.308 169.111,164.443 165.407,166.395C159.325,169.813 151.135,168.133 146.499,163.019C147.752,161.858 149.048,160.733 150.387,159.665C153.165,162.891 157.887,164.771 161.989,163.09C163.954,162.392 165.329,159.622 163.648,157.97C160.45,155.228 155.565,155.05 152.965,151.489C150.608,148.099 152.267,143.192 155.593,141.083Z" style="fill:white;fill-rule:nonzero;"/>
        </g>
        <g id="_-002896ff" serif:id="#002896ff">
            <path d="M48.963,10.752C122.134,10.752 195.305,10.737 268.476,10.759C268.426,48.883 268.419,86.999 268.476,125.123C245.964,125.123 223.444,125.13 200.932,125.116C153.734,125.102 106.53,125.194 59.333,125.066C56,112.603 52.361,100.218 49.049,87.747C48.857,62.087 49.028,36.412 48.963,10.752M89.964,39.667C82.786,42.615 76.732,48.306 73.563,55.421C69.638,64.131 70.009,74.707 74.702,83.054C78.854,90.582 86.389,96.037 94.736,97.953C104.942,100.431 116.394,98.159 124.442,91.294C129.598,87.156 132.739,81.159 134.697,74.956C134.391,82.498 134.541,90.04 134.491,97.583C140.16,97.597 145.822,97.611 151.484,97.575C151.363,87.961 151.47,78.346 151.434,68.732C151.434,64.715 151.049,60.37 153.286,56.802C155.971,52.308 162.295,51.382 166.782,53.469C170.585,55.278 172.038,59.765 172.059,63.703C172.059,74.999 172.102,86.287 172.031,97.583C177.686,97.611 183.34,97.597 188.995,97.59C189.116,90.297 188.625,82.968 189.216,75.704C190.427,82.591 194.486,88.851 200.12,92.953C213.132,102.404 233.5,100.695 243.72,87.861C240.409,85.012 237.239,82 233.835,79.265C228.429,84.984 219.37,87.213 212.177,83.716C208.296,81.829 206.052,77.848 204.956,73.831C218.758,73.738 232.553,73.802 246.355,73.795C247.146,66.688 246.177,59.302 243.2,52.771C240.337,46.454 235.01,41.184 228.415,38.869C219.84,35.857 209.813,36.547 202.085,41.49C195.369,45.706 190.648,52.835 189.188,60.612C188.853,55.121 188.425,49.267 185.028,44.681C180.136,37.587 170.236,35.593 162.345,38.079C157.794,39.489 154.34,42.943 151.349,46.49C151.441,43.712 151.484,40.935 151.384,38.164C145.758,38.285 140.132,38.178 134.498,38.221C134.541,45.792 134.377,53.362 134.712,60.926C133.131,56.183 131.179,51.447 127.739,47.722C118.602,37.252 102.592,34.361 89.964,39.667Z" style="fill:rgb(0,40,150);fill-rule:nonzero;"/>
            <path d="M209.093,54.139C213.48,49.531 221.721,49.424 226.101,54.096C228.529,56.532 229.555,59.929 230.246,63.205C221.742,63.212 213.238,63.205 204.735,63.212C205.532,59.936 206.686,56.596 209.093,54.139Z" style="fill:rgb(0,40,150);fill-rule:nonzero;"/>
            <path d="M91.695,56.446C97.072,50.307 107.641,50.065 113.417,55.77C119.307,61.261 120.162,70.989 115.867,77.677C111.601,84.699 101.374,86.28 94.693,81.872C90.67,83.88 86.724,86.052 82.629,87.911C84.751,83.823 87.208,79.92 89.487,75.918C86.404,69.771 87.044,61.652 91.695,56.446Z" style="fill:rgb(0,40,150);fill-rule:nonzero;"/>
        </g>
        <path id="_-eb1e23ff" serif:id="#eb1e23ff" d="M23.552,182.241C32.12,150.762 40.431,119.212 49.049,87.747C52.361,100.218 56,112.603 59.333,125.066C106.53,125.194 153.734,125.102 200.932,125.116C195.725,144.146 190.69,163.226 185.513,182.263C131.528,182.227 77.544,182.277 23.552,182.241M55.508,139.424C52.959,148.882 50.402,158.34 47.881,167.805C49.576,167.791 51.278,167.741 52.973,167.634C54.654,160.918 56.634,154.28 58.222,147.55C58.863,148.255 59.34,149.096 59.718,149.979C62.388,155.89 65.436,161.623 68.05,167.556C69.524,167.762 71.02,167.791 72.501,167.677C75.023,158.254 77.508,148.825 80.122,139.424C78.441,139.424 76.753,139.424 75.072,139.438C73.356,146.04 71.447,152.592 69.788,159.202C66.405,152.706 63.421,146.005 60.188,139.424L55.508,139.424M86.254,139.431C83.683,148.832 81.219,158.262 78.626,167.655C85.649,167.812 92.678,167.848 99.7,167.648C100.113,166.174 100.541,164.707 100.982,163.247C95.598,163.24 90.214,163.24 84.837,163.254C85.542,160.747 86.24,158.24 86.881,155.712C91.56,155.705 96.239,155.769 100.911,155.683C101.324,154.181 101.751,152.692 102.186,151.204C97.485,151.211 92.792,151.175 88.091,151.232C88.768,148.775 89.416,146.311 90.171,143.875C95.406,144.025 100.647,143.932 105.889,143.939C106.302,142.415 106.708,140.891 107.086,139.367C100.142,139.502 93.198,139.381 86.254,139.431M108.994,139.46C109.799,148.946 110.518,158.44 111.231,167.933C112.755,167.94 114.286,167.94 115.824,167.94C119.87,161.317 123.836,154.644 127.946,148.063C128.444,154.686 128.936,161.31 129.37,167.94C130.901,167.947 132.44,167.955 133.978,167.969C139.918,158.489 145.672,148.896 151.605,139.417C149.639,139.41 147.681,139.417 145.722,139.474C141.62,146.311 137.824,153.376 133.423,160.006C133.074,153.12 132.561,146.247 132.141,139.36C130.695,139.36 129.256,139.367 127.818,139.381C123.601,146.211 119.877,153.376 115.333,159.971C115.169,153.12 114.564,146.29 114.314,139.445C112.541,139.424 110.768,139.424 108.994,139.46M155.593,141.083C152.267,143.192 150.608,148.099 152.965,151.489C155.565,155.05 160.45,155.228 163.648,157.97C165.329,159.622 163.954,162.392 161.989,163.09C157.887,164.771 153.165,162.891 150.387,159.665C149.048,160.733 147.752,161.858 146.499,163.019C151.135,168.133 159.325,169.813 165.407,166.395C169.111,164.443 171.098,159.308 168.826,155.605C166.347,151.93 161.49,151.638 158.15,149.138C156.22,147.7 157.516,144.837 159.432,144.103C163.007,142.586 167.138,144.025 169.745,146.71C170.984,145.556 172.18,144.36 173.32,143.106C168.691,138.69 161.034,137.501 155.593,141.083Z" style="fill:rgb(235,30,35);fill-rule:nonzero;"/>
    </g>
</svg>
